X: 4
T:Cantiga 100 'Santa María, Strela do Día'
M:4/4
L:1/4
Q:80
C:Alfonso X el Sabio
S:Jose Mª Hernansáez
R:Cantiga
K:CMin
G2 FE | D2 D E| F2 G2 | C2 C2| G2 
 FE| D2 CD| EDCB, | C4 :| F2 G2 | 
=A3 G| B=AGA| F4| F2 G2| =A3 G| 
B=AGF| G4 |=A2 B2 |c3 =A| B c B/2=A/2G |
=A4 |=A2 A2| =A3 G|B =A G A | F4 |

